public/assets/shopify.svg

<svg width="142" height="50" viewBox="0 0 142 50" fill="none" xmlns="http://www.w3.org/2000/svg">
<rect x="0.5" y="0.5" width="141" height="49" rx="6.5" fill="white" stroke="url(#paint0_linear_2329_171)"/>
<rect x="13" y="5" width="40" height="40" rx="8" fill="white"/>
<path d="M41.3541 17.4045C41.3366 17.2795 41.2254 17.2102 41.1334 17.2026C39.8207 17.0948 38.5811 16.5492 37.6412 15.6266C37.6242 15.61 37.6111 15.597 37.6022 15.5883C37.454 15.4424 37.1647 15.4868 37.0524 15.5193C36.6287 15.6423 36.1891 15.4166 35.9926 15.0216C35.5137 14.0588 34.7787 13.2982 33.6524 13.2982C33.5785 13.2982 33.5079 13.2664 33.4601 13.21C33.0762 12.757 32.6174 12.5586 32.2178 12.5586C29.9559 12.5586 28.5138 14.4912 27.6798 16.3556C27.0765 17.7044 26.0438 18.8704 24.6322 19.3072C23.9253 19.5256 23.9029 19.5475 23.8101 20.2035C23.7766 20.4421 23.3325 23.8154 22.88 27.2575C22.3251 31.4781 25.1733 35.3937 29.3595 36.1661L34.9341 37.1948C35.8382 37.3616 36.7662 37.3489 37.6654 37.1573C41.2879 36.3855 43.684 32.9284 43.134 29.2656C42.345 24.0106 41.3644 17.4792 41.3541 17.4045ZM35.3058 15.479C35.4262 15.7546 35.2638 16.0638 34.9761 16.1515L34.5291 16.2878C34.4061 16.3253 34.2822 16.2329 34.2822 16.1043C34.2822 15.9502 34.278 15.802 34.2699 15.6594C34.2301 14.9596 34.7787 14.4923 35.1208 15.104C35.1869 15.2222 35.2485 15.3479 35.3058 15.479ZM31.986 15.1691C32.4877 14.5783 33.3258 14.9228 33.3943 15.6948C33.4158 15.9367 33.4273 16.1997 33.4273 16.4846C33.4273 16.5675 33.3726 16.6402 33.2934 16.6644C33.0977 16.7241 32.8981 16.7849 32.6956 16.8467C31.9149 17.0848 31.1892 16.364 31.621 15.6714C31.7378 15.4841 31.8602 15.3172 31.986 15.1691ZM32.1282 13.4196C32.325 13.4196 32.3204 13.6678 32.1548 13.7739C31.3076 14.3169 30.4698 15.3753 30.0186 17.2C29.9436 17.5033 29.7225 17.7534 29.4236 17.8446C28.7793 18.0411 28.1859 17.4434 28.4515 16.8244C29.1616 15.1693 30.3484 13.4196 32.1282 13.4196Z" fill="#95BF46"/>
<path d="M41.1339 17.2007C39.8213 17.0928 38.5816 16.5473 37.6417 15.6246C37.6247 15.608 37.6116 15.5951 37.6027 15.5863C37.514 15.4994 37.3891 15.6001 37.3829 15.7242L36.5343 32.8192C36.4184 35.1555 38.5471 36.9676 40.8348 36.4802C42.6769 36.0877 43.896 34.3346 43.6163 32.4721C42.8253 27.2047 41.3672 17.4937 41.3546 17.4026C41.3372 17.2775 41.2259 17.2083 41.1339 17.2007Z" fill="#5E8E3E"/>
<path d="M32.4649 21.1255C33.1759 21.2153 33.4827 21.94 33.2512 22.6182C32.9549 23.4864 31.9243 23.8817 31.0082 23.8327C30.9428 23.8292 30.8765 23.8273 30.8093 23.8273C29.2932 23.8273 29.2169 24.7644 29.2169 25.0005C29.2169 26.2889 32.627 26.7826 32.627 29.8004C32.627 32.1748 31.0979 33.7037 29.0362 33.7037C27.4006 33.7037 26.2934 33.041 25.7307 32.5917C25.4409 32.3604 25.3626 31.9735 25.4715 31.6191C25.7025 30.8672 26.6443 30.5938 27.3691 30.8995C27.6903 31.035 28.0327 31.1313 28.3573 31.1313C29.0744 31.1313 29.3661 30.5752 29.3661 30.1689C29.3661 28.4883 26.5684 28.4133 26.5684 25.6517C26.5684 23.3274 28.2623 21.0781 31.6816 21.0781C31.9759 21.0781 32.237 21.0967 32.4649 21.1255Z" fill="white"/>
<path d="M61.557 30.21C60.843 30.21 60.199 30.0887 59.625 29.846C59.0557 29.6033 58.5843 29.258 58.211 28.81C57.8423 28.3573 57.602 27.823 57.49 27.207L58.778 27.004C58.9413 27.6387 59.2797 28.1357 59.793 28.495C60.311 28.8497 60.92 29.027 61.62 29.027C62.0727 29.027 62.481 28.957 62.845 28.817C63.2137 28.6723 63.5053 28.467 63.72 28.201C63.9347 27.935 64.042 27.62 64.042 27.256C64.042 27.032 64.0023 26.8407 63.923 26.682C63.8483 26.5187 63.7433 26.381 63.608 26.269C63.4773 26.1523 63.328 26.0543 63.16 25.975C62.992 25.8957 62.817 25.8303 62.635 25.779L60.066 25.016C59.786 24.932 59.5153 24.827 59.254 24.701C58.9927 24.5703 58.7593 24.4093 58.554 24.218C58.3487 24.022 58.1853 23.7887 58.064 23.518C57.9427 23.2427 57.882 22.9183 57.882 22.545C57.882 21.9477 58.036 21.439 58.344 21.019C58.6567 20.5943 59.079 20.27 59.611 20.046C60.143 19.822 60.7427 19.7123 61.41 19.717C62.0867 19.7217 62.691 19.843 63.223 20.081C63.7597 20.3143 64.203 20.6503 64.553 21.089C64.9077 21.5277 65.1457 22.0527 65.267 22.664L63.944 22.895C63.874 22.4843 63.7177 22.132 63.475 21.838C63.237 21.5393 62.9383 21.3107 62.579 21.152C62.2197 20.9887 61.8253 20.9047 61.396 20.9C60.9853 20.8953 60.6143 20.9607 60.283 21.096C59.9517 21.2313 59.688 21.4203 59.492 21.663C59.296 21.901 59.198 22.1763 59.198 22.489C59.198 22.797 59.2867 23.0467 59.464 23.238C59.6413 23.4247 59.8583 23.574 60.115 23.686C60.3763 23.7933 60.6307 23.882 60.878 23.952L62.796 24.505C63.0153 24.5657 63.2673 24.6497 63.552 24.757C63.8413 24.8643 64.1213 25.016 64.392 25.212C64.6627 25.4033 64.8867 25.66 65.064 25.982C65.2413 26.2993 65.33 26.7007 65.33 27.186C65.33 27.6713 65.232 28.103 65.036 28.481C64.8447 28.859 64.5763 29.1763 64.231 29.433C63.8857 29.685 63.4843 29.8763 63.027 30.007C62.5697 30.1423 62.0797 30.21 61.557 30.21ZM72.1814 30V26.213C72.1814 25.8537 72.1487 25.5083 72.0834 25.177C72.0227 24.8457 71.913 24.5493 71.7544 24.288C71.6004 24.022 71.3904 23.812 71.1244 23.658C70.863 23.504 70.5317 23.427 70.1304 23.427C69.8177 23.427 69.533 23.4807 69.2764 23.588C69.0244 23.6907 68.8074 23.8493 68.6254 24.064C68.4434 24.2787 68.301 24.5493 68.1984 24.876C68.1004 25.198 68.0514 25.5783 68.0514 26.017L67.2324 25.765C67.2324 25.0323 67.363 24.4047 67.6244 23.882C67.8904 23.3547 68.2614 22.951 68.7374 22.671C69.218 22.3863 69.7827 22.244 70.4314 22.244C70.9214 22.244 71.339 22.321 71.6844 22.475C72.0297 22.629 72.3167 22.8343 72.5454 23.091C72.774 23.343 72.9537 23.6277 73.0844 23.945C73.215 24.2577 73.306 24.5773 73.3574 24.904C73.4134 25.226 73.4414 25.5317 73.4414 25.821V30H72.1814ZM66.7914 30V19.92H67.9114V25.485H68.0514V30H66.7914ZM78.4813 30.21C77.7299 30.21 77.0813 30.0397 76.5353 29.699C75.9939 29.3583 75.5763 28.887 75.2823 28.285C74.9883 27.683 74.8413 26.9923 74.8413 26.213C74.8413 25.4197 74.9906 24.7243 75.2893 24.127C75.5879 23.5297 76.0103 23.0653 76.5563 22.734C77.1023 22.398 77.7439 22.23 78.4813 22.23C79.2373 22.23 79.8883 22.4003 80.4343 22.741C80.9803 23.077 81.3979 23.546 81.6873 24.148C81.9813 24.7453 82.1283 25.4337 82.1283 26.213C82.1283 27.0017 81.9813 27.697 81.6873 28.299C81.3933 28.8963 80.9733 29.3653 80.4273 29.706C79.8813 30.042 79.2326 30.21 78.4813 30.21ZM78.4813 29.027C79.2653 29.027 79.8486 28.7657 80.2313 28.243C80.6139 27.7203 80.8053 27.0437 80.8053 26.213C80.8053 25.359 80.6116 24.68 80.2243 24.176C79.8369 23.6673 79.2559 23.413 78.4813 23.413C77.9539 23.413 77.5199 23.532 77.1793 23.77C76.8386 24.008 76.5843 24.337 76.4163 24.757C76.2483 25.177 76.1643 25.6623 76.1643 26.213C76.1643 27.0623 76.3603 27.7437 76.7523 28.257C77.1443 28.7703 77.7206 29.027 78.4813 29.027ZM87.1415 30.21C86.4321 30.21 85.8348 30.035 85.3495 29.685C84.8641 29.3303 84.4955 28.852 84.2435 28.25C83.9961 27.6433 83.8725 26.9643 83.8725 26.213C83.8725 25.4523 83.9961 24.771 84.2435 24.169C84.4955 23.567 84.8641 23.0933 85.3495 22.748C85.8395 22.4027 86.4391 22.23 87.1485 22.23C87.8485 22.23 88.4505 22.405 88.9545 22.755C89.4631 23.1003 89.8528 23.574 90.1235 24.176C90.3941 24.778 90.5295 25.457 90.5295 26.213C90.5295 26.969 90.3941 27.648 90.1235 28.25C89.8528 28.852 89.4631 29.3303 88.9545 29.685C88.4505 30.035 87.8461 30.21 87.1415 30.21ZM83.6625 33.36V22.44H84.7755V28.005H84.9155V33.36H83.6625ZM86.9875 29.069C87.4868 29.069 87.8998 28.943 88.2265 28.691C88.5531 28.439 88.7981 28.0983 88.9615 27.669C89.1248 27.235 89.2065 26.7497 89.2065 26.213C89.2065 25.681 89.1248 25.2003 88.9615 24.771C88.8028 24.3417 88.5555 24.001 88.2195 23.749C87.8881 23.497 87.4658 23.371 86.9525 23.371C86.4625 23.371 86.0565 23.4923 85.7345 23.735C85.4125 23.973 85.1721 24.3067 85.0135 24.736C84.8548 25.1607 84.7755 25.653 84.7755 26.213C84.7755 26.7637 84.8525 27.256 85.0065 27.69C85.1651 28.1193 85.4078 28.4577 85.7345 28.705C86.0611 28.9477 86.4788 29.069 86.9875 29.069ZM92.204 21.103V19.815H93.45V21.103H92.204ZM92.204 30V22.44H93.45V30H92.204ZM96.2713 30V22.027C96.2713 21.831 96.2806 21.6327 96.2993 21.432C96.318 21.2267 96.36 21.0283 96.4253 20.837C96.4906 20.641 96.598 20.4613 96.7473 20.298C96.92 20.1067 97.109 19.9713 97.3143 19.892C97.5196 19.808 97.7273 19.7567 97.9373 19.738C98.152 19.7193 98.355 19.71 98.5463 19.71H99.5053V20.746H98.6163C98.2476 20.746 97.9723 20.837 97.7903 21.019C97.6083 21.1963 97.5173 21.467 97.5173 21.831V30H96.2713ZM94.9903 23.469V22.44H99.5053V23.469H94.9903ZM101.673 33.36L103.136 29.384L103.157 30.56L99.8526 22.44H101.162L103.752 28.971H103.304L105.733 22.44H107L102.884 33.36H101.673Z" fill="#475367"/>
<defs>
<linearGradient id="paint0_linear_2329_171" x1="71" y1="1" x2="71" y2="49" gradientUnits="userSpaceOnUse">
<stop stop-color="#E4E7EC"/>
<stop offset="1" stop-color="white"/>
</linearGradient>
</defs>
</svg>

<svg xmlns="http://www.w3.org/2000/svg" width="142" height="50" fill="none" xmlns:v="https://vecta.io/nano"><g fill="#fff"><rect x=".5" y=".5" width="141" height="49" rx="6.5" stroke="url(#A)"/><rect x="13" y="5" width="40" height="40" rx="8"/></g><path d="M41.354 17.405c-.018-.125-.129-.194-.221-.202-1.313-.108-2.552-.653-3.492-1.576l-.039-.038c-.148-.146-.437-.101-.55-.069-.424.123-.863-.103-1.06-.498-.479-.963-1.214-1.723-2.34-1.723-.074 0-.145-.032-.192-.088-.384-.453-.843-.651-1.242-.651-2.262 0-3.704 1.933-4.538 3.797-.603 1.349-1.636 2.515-3.048 2.952-.707.218-.729.24-.822.896l-.93 7.054a8 8 0 0 0 6.48 8.909l5.575 1.029c.904.167 1.832.154 2.731-.038 3.623-.772 6.019-4.229 5.469-7.892l-1.78-11.861zm-6.048-1.925c.12.276-.042.585-.33.672l-.447.136c-.123.037-.247-.055-.247-.184l-.012-.445c-.04-.7.509-1.167.851-.555.066.118.128.244.185.375zm-3.32-.31c.502-.591 1.34-.246 1.408.526a8.94 8.94 0 0 1 .033.79c0 .083-.055.156-.134.18l-.598.182c-.781.238-1.506-.483-1.075-1.175a4.24 4.24 0 0 1 .365-.502zm.142-1.749c.197 0 .192.248.027.354-.847.543-1.685 1.601-2.136 3.426a.89.89 0 0 1-.595.645c-.644.197-1.238-.401-.972-1.02.71-1.655 1.897-3.405 3.677-3.405z" fill="#95bf46"/><path d="M41.134 17.201c-1.313-.108-2.552-.653-3.492-1.576l-.039-.038c-.089-.087-.214.014-.22.138l-.849 17.095c-.116 2.336 2.013 4.148 4.301 3.661a3.56 3.56 0 0 0 2.782-4.008l-2.262-15.069c-.017-.125-.129-.194-.221-.202z" fill="#5e8e3e"/><path d="M32.465 21.126c.711.09 1.018.815.786 1.493-.296.868-1.327 1.263-2.243 1.214l-.199-.005c-1.516 0-1.592.937-1.592 1.173 0 1.288 3.41 1.782 3.41 4.8 0 2.374-1.529 3.903-3.591 3.903-1.636 0-2.743-.663-3.306-1.112-.29-.231-.368-.618-.259-.973.231-.752 1.173-1.025 1.898-.72.321.136.664.232.988.232.717 0 1.009-.556 1.009-.962 0-1.681-2.798-1.756-2.798-4.517 0-2.324 1.694-4.574 5.113-4.574a6.25 6.25 0 0 1 .783.047z" fill="#fff"/><path d="M61.557 30.21c-.714 0-1.358-.121-1.932-.364a3.69 3.69 0 0 1-1.414-1.036c-.369-.453-.609-.987-.721-1.603l1.288-.203c.163.635.502 1.132 1.015 1.491s1.127.532 1.827.532a3.39 3.39 0 0 0 1.225-.21c.369-.145.66-.35.875-.616s.322-.581.322-.945c0-.224-.04-.415-.119-.574a1.15 1.15 0 0 0-.315-.413 1.86 1.86 0 0 0-.448-.294 3.37 3.37 0 0 0-.525-.196l-2.569-.763c-.28-.084-.551-.189-.812-.315s-.495-.292-.7-.483a2.2 2.2 0 0 1-.49-.7c-.121-.275-.182-.6-.182-.973 0-.597.154-1.106.462-1.526s.735-.749 1.267-.973 1.132-.334 1.799-.329c.677.005 1.281.126 1.813.364a3.41 3.41 0 0 1 1.33 1.008c.355.439.593.964.714 1.575l-1.323.231a2.21 2.21 0 0 0-.469-1.057 2.33 2.33 0 0 0-.896-.686c-.359-.163-.754-.247-1.183-.252-.411-.005-.782.061-1.113.196s-.595.324-.791.567a1.26 1.26 0 0 0-.294.826c0 .308.089.558.266.749s.394.336.651.448a7.11 7.11 0 0 0 .763.266l1.918.553c.219.061.471.145.756.252s.569.259.84.455.495.448.672.77.266.719.266 1.204-.098.917-.294 1.295a2.68 2.68 0 0 1-.805.952c-.345.252-.747.443-1.204.574s-.947.203-1.47.203zM72.181 30v-3.787c0-.359-.033-.705-.098-1.036a2.6 2.6 0 0 0-.329-.889 1.7 1.7 0 0 0-.63-.63c-.261-.154-.593-.231-.994-.231-.313 0-.597.054-.854.161a1.67 1.67 0 0 0-.651.476c-.182.215-.324.485-.427.812s-.147.702-.147 1.141l-.819-.252c0-.733.131-1.36.392-1.883a2.86 2.86 0 0 1 1.113-1.211c.481-.285 1.045-.427 1.694-.427.49 0 .908.077 1.253.231s.632.359.861.616a2.91 2.91 0 0 1 .539.854c.131.313.222.632.273.959a5.36 5.36 0 0 1 .084.917V30h-1.26zm-5.39 0V19.92h1.12v5.565h.14V30h-1.26zm11.69.21c-.751 0-1.4-.17-1.946-.511s-.959-.812-1.253-1.414-.441-1.293-.441-2.072c0-.793.149-1.489.448-2.086s.721-1.062 1.267-1.393 1.188-.504 1.925-.504c.756 0 1.407.17 1.953.511a3.28 3.28 0 0 1 1.253 1.407c.294.597.441 1.286.441 2.065 0 .789-.147 1.484-.441 2.086a3.38 3.38 0 0 1-1.26 1.407c-.546.336-1.195.504-1.946.504zm0-1.183c.784 0 1.367-.261 1.75-.784s.574-1.199.574-2.03c0-.854-.194-1.533-.581-2.037s-.968-.763-1.743-.763c-.527 0-.961.119-1.302.357s-.595.567-.763.987-.252.905-.252 1.456c0 .849.196 1.531.588 2.044s.968.77 1.729.77zm8.66 1.183c-.709 0-1.307-.175-1.792-.525s-.854-.833-1.106-1.435-.371-1.286-.371-2.037c0-.761.124-1.442.371-2.044s.621-1.076 1.106-1.421 1.09-.518 1.799-.518c.7 0 1.302.175 1.806.525s.898.819 1.169 1.421.406 1.281.406 2.037-.135 1.435-.406 2.037-.66 1.08-1.169 1.435-1.108.525-1.813.525zm-3.479 3.15V22.44h1.113v5.565h.14v5.355h-1.253zm3.325-4.291c.499 0 .912-.126 1.239-.378a2.28 2.28 0 0 0 .735-1.022c.163-.434.245-.919.245-1.456a4.03 4.03 0 0 0-.245-1.442c-.159-.429-.406-.77-.742-1.022s-.754-.378-1.267-.378c-.49 0-.896.121-1.218.364s-.562.572-.721 1.001-.238.917-.238 1.477a4.4 4.4 0 0 0 .231 1.477c.159.429.401.768.728 1.015s.744.364 1.253.364zm5.216-7.966v-1.288h1.246v1.288h-1.246zm0 8.897v-7.56h1.246V30h-1.246zm4.067 0v-7.973l.028-.595a2.55 2.55 0 0 1 .126-.595c.065-.196.173-.376.322-.539a1.49 1.49 0 0 1 .567-.406 2.14 2.14 0 0 1 .623-.154l.609-.028h.959v1.036h-.889c-.369 0-.644.091-.826.273s-.273.448-.273.812V30h-1.246zm-1.281-6.531V22.44h4.515v1.029H94.99zm6.683 9.891l1.463-3.976.021 1.176-3.304-8.12h1.309l2.59 6.531h-.448l2.429-6.531H107l-4.116 10.92h-1.211z" fill="#475367"/><defs><linearGradient id="A" x1="71" y1="1" x2="71" y2="49" gradientUnits="userSpaceOnUse"><stop stop-color="#e4e7ec"/><stop offset="1" stop-color="#fff"/></linearGradient></defs></svg>
